src/assets/img/providers/unicum-g.svg

<svg width="111" height="28" viewBox="0 0 111 28" fill="none" xmlns="http://www.w3.org/2000/svg">
<path fill-rule="evenodd" clip-rule="evenodd" d="M65.0698 4.31667C66.2591 4.31667 67.2233 3.35254 67.2233 2.16322C67.2233 0.9739 66.2591 0.00976562 65.0698 0.00976562C63.8805 0.00976562 62.9164 0.9739 62.9164 2.16322C62.9164 3.35254 63.8805 4.31667 65.0698 4.31667ZM21.5374 10.8383C13.8739 14.9551 6.90786 20.4024 0.639251 27.1801C0.564585 27.2581 0.488222 27.2598 0.410161 27.1852L0.277797 27.0579C0.231273 27.0119 0.204258 26.9497 0.202362 26.8843C0.200466 26.8189 0.223835 26.7553 0.267615 26.7066C3.37307 23.2753 6.55828 20.2513 9.82325 17.6346C19.9881 9.48577 31.5292 4.49159 44.4465 2.65208C44.7819 2.60336 45.1166 2.58085 45.4503 2.5584C46.0234 2.51986 46.5937 2.4815 47.16 2.31099C47.5367 2.19899 47.9355 2.1362 48.3563 2.12262C52.8567 1.97668 57.3367 1.95632 61.7963 2.06153C61.8342 2.06207 61.8716 2.07045 61.9062 2.08614C61.9407 2.10183 61.9716 2.12449 61.9969 2.1527C62.0223 2.18091 62.0415 2.21406 62.0534 2.25006C62.0653 2.28606 62.0697 2.32414 62.0661 2.3619L62.0509 2.56044C62.0373 2.74711 61.9372 2.83535 61.7505 2.82517C55.5837 2.57402 51.6366 2.54177 49.9091 2.72844C49.4886 2.77354 49.0669 2.81783 48.6448 2.86217C45.5409 3.18823 42.4139 3.5167 39.5592 4.18444C32.8969 5.74226 26.8897 7.9602 21.5374 10.8383ZM68.3992 3.76729C78.7389 5.54911 88.5032 9.59129 97.2087 15.4611C97.2954 15.5203 97.3992 15.5499 97.5046 15.5453C97.61 15.5407 97.7116 15.5022 97.7941 15.4356L97.901 15.3491C97.9268 15.3286 97.9472 15.3022 97.9606 15.272C97.9739 15.2418 97.9798 15.2087 97.9779 15.1755C97.9759 15.1422 97.966 15.1097 97.9491 15.0806C97.9322 15.0515 97.9088 15.0266 97.8807 15.008C96.031 13.8371 94.1711 12.7137 92.301 11.6378C84.8378 7.33771 76.8586 4.41553 68.3636 2.87129C68.1532 2.83395 68.0378 2.9222 68.0174 3.13601L68.0072 3.26838C67.9869 3.55347 68.1175 3.71977 68.3992 3.76729ZM76.2799 24.5583L76.3818 24.0543C76.4225 23.8405 76.5515 23.7302 76.7687 23.7234L78.5709 23.6776C78.7677 23.6708 78.8814 23.7641 78.9119 23.9576C79.1699 25.5765 78.71 26.783 77.5323 27.5772C77.349 27.7028 77.1471 27.7656 76.9265 27.7656H69.9876C69.5969 27.7657 69.2101 27.6878 68.8499 27.5366C68.4898 27.3853 68.1635 27.1638 67.8903 26.8849C67.6171 26.606 67.4025 26.2755 67.2591 25.9127C67.1157 25.5498 67.0464 25.1621 67.0552 24.7721C67.0824 23.5401 67.0705 22.3132 67.0196 21.0914C66.9483 19.5132 67.3352 18.0012 68.9185 17.4361C69.5803 17.2053 70.2218 17.1052 70.8428 17.1358C72.2581 17.2104 73.709 17.1952 75.1956 17.0899C77.6545 16.9219 79.309 18.0979 78.9069 20.8776C78.8797 21.0575 78.7745 21.1474 78.5912 21.1474L76.6465 21.1525C76.4666 21.1525 76.3699 21.0642 76.3563 20.8878C76.2918 20.2124 75.9202 19.8747 75.2414 19.8747C73.5852 19.8781 72.007 19.8849 70.5069 19.895C70.275 19.8977 70.0536 19.9917 69.8907 20.1566C69.7277 20.3214 69.6363 20.5439 69.6363 20.7758L69.6261 24.0034C69.6261 24.2964 69.7425 24.5774 69.9497 24.7846C70.1569 24.9917 70.4379 25.1081 70.7309 25.1081L75.6232 25.103C75.7791 25.1033 75.9301 25.0489 76.0501 24.9494C76.1701 24.8499 76.2514 24.7115 76.2799 24.5583ZM63.2014 17.3189H65.4007C65.5047 17.3189 65.5891 17.4032 65.5891 17.5072V27.5669C65.5891 27.6709 65.5047 27.7552 65.4007 27.7552H63.2014C63.0974 27.7552 63.0131 27.6709 63.0131 27.5669V17.5072C63.0131 17.4032 63.0974 17.3189 63.2014 17.3189ZM42.9905 25.1083C43.1055 25.109 43.2194 25.0867 43.3256 25.0426C43.4319 24.9985 43.5284 24.9336 43.6094 24.8516C43.6905 24.7696 43.7544 24.6722 43.7977 24.5651C43.8409 24.4579 43.8624 24.3432 43.8611 24.2276L43.7643 17.8334C43.7609 17.5653 43.895 17.4312 44.1665 17.4312L46.0654 17.4414C46.32 17.4414 46.4456 17.5687 46.4422 17.8232C46.4116 20.1481 46.3895 22.5645 46.376 25.0727C46.3709 26.7527 45.312 27.9185 43.6523 27.8981C41.5176 27.8778 39.398 27.8642 37.2938 27.8574C35.5018 27.8472 34.4582 26.2589 34.4887 24.5839C34.5294 22.1607 34.5226 19.8715 34.4683 17.7163C34.4649 17.5296 34.5566 17.4363 34.7433 17.4363L36.8458 17.4312C36.8852 17.4312 36.9243 17.4391 36.9607 17.4545C36.9972 17.4698 37.0303 17.4923 37.0582 17.5207C37.0861 17.549 37.1082 17.5827 37.1233 17.6198C37.1384 17.6568 37.1462 17.6966 37.1462 17.7367L37.1207 24.029C37.1173 24.735 37.4686 25.0896 38.1745 25.093L42.9905 25.1083ZM48.7127 27.7656L51.0036 27.7606C51.0563 27.7606 51.1068 27.7396 51.144 27.7024C51.1813 27.6652 51.2022 27.6147 51.2022 27.562L51.136 20.3176C51.1346 20.2741 51.1476 20.2312 51.173 20.1957C51.1984 20.1603 51.2347 20.1342 51.2764 20.1214C51.3181 20.1087 51.3629 20.11 51.4037 20.1252C51.4446 20.1405 51.4793 20.1687 51.5025 20.2056L56.4509 27.6791C56.4695 27.7063 56.4946 27.7285 56.5239 27.7436C56.5533 27.7588 56.5859 27.7663 56.6189 27.7656L61.048 27.7606C61.1007 27.7606 61.1512 27.7396 61.1884 27.7024C61.2256 27.6652 61.2465 27.6147 61.2465 27.562L61.2414 17.65C61.2414 17.5973 61.2205 17.5468 61.1833 17.5096C61.1461 17.4724 61.0956 17.4515 61.0429 17.4515L58.8436 17.4362C58.8176 17.4362 58.7917 17.4413 58.7677 17.4513C58.7436 17.4613 58.7217 17.4759 58.7032 17.4943C58.6848 17.5128 58.6702 17.5347 58.6602 17.5588C58.6502 17.5828 58.6451 17.6087 58.6451 17.6347L58.7011 25.6478C58.7013 25.691 58.6875 25.733 58.6617 25.7676C58.6359 25.8022 58.5996 25.8274 58.5581 25.8395C58.5167 25.8516 58.4725 25.8499 58.4321 25.8346C58.3918 25.8193 58.3575 25.7912 58.3345 25.7547L53.04 17.5278C53.022 17.4996 52.9971 17.4764 52.9678 17.4604C52.9384 17.4444 52.9054 17.4361 52.872 17.4362H48.7178C48.6652 17.4362 48.6147 17.4571 48.5774 17.4943C48.5402 17.5316 48.5193 17.5821 48.5193 17.6347L48.5142 27.5671C48.5142 27.6198 48.5351 27.6703 48.5723 27.7075C48.6096 27.7447 48.6601 27.7656 48.7127 27.7656ZM84.4203 25.1033L89.1294 25.0982C89.3616 25.0982 89.5844 25.0059 89.7486 24.8417C89.9128 24.6775 90.0051 24.4548 90.0051 24.2225L89.9847 17.7673C89.9847 17.5534 90.0916 17.4448 90.3054 17.4414L92.2705 17.4313C92.4606 17.4313 92.5539 17.5246 92.5505 17.7113C92.5301 20.1006 92.5335 22.6053 92.5607 25.2254C92.5709 26.6102 91.5629 27.8371 90.1222 27.8625C87.726 27.9101 85.4114 27.8897 83.1782 27.8014C81.6102 27.7454 80.6887 25.9891 80.6836 24.6044C80.6768 22.2727 80.6768 19.9733 80.6836 17.7062C80.6836 17.6696 80.6908 17.6335 80.7047 17.5998C80.7185 17.5661 80.7389 17.5356 80.7645 17.51C80.79 17.4844 80.8204 17.4642 80.8537 17.4507C80.887 17.4372 80.9227 17.4306 80.9585 17.4313L82.8472 17.4414C83.0814 17.4448 83.1968 17.5619 83.1934 17.7927L83.1476 23.8204C83.1463 23.9883 83.1782 24.1549 83.2415 24.3105C83.3049 24.4661 83.3984 24.6076 83.5168 24.7269C83.6351 24.8462 83.7758 24.9408 83.9309 25.0054C84.086 25.07 84.2523 25.1033 84.4203 25.1033ZM107.111 19.8799C107.165 19.7408 107.263 19.6644 107.406 19.6509C107.43 19.648 107.455 19.6503 107.478 19.6577C107.502 19.6651 107.523 19.6774 107.542 19.6937C107.56 19.7101 107.574 19.7302 107.584 19.7526C107.594 19.7751 107.599 19.7994 107.599 19.8239L107.538 27.613C107.538 27.7115 107.587 27.7607 107.686 27.7607L109.931 27.7658C110.08 27.7692 110.155 27.6945 110.155 27.5418V17.7774C110.155 17.5534 110.041 17.4397 109.814 17.4363L105.894 17.4312C105.673 17.4312 105.519 17.5313 105.431 17.7316L102.921 23.525C102.902 23.5677 102.872 23.6041 102.834 23.6299C102.795 23.6557 102.75 23.6697 102.703 23.6703C102.657 23.6708 102.611 23.6579 102.572 23.633C102.533 23.6081 102.502 23.5724 102.483 23.5301L99.7745 17.7316C99.6795 17.5313 99.5217 17.4312 99.3011 17.4312L94.8567 17.4363C94.8135 17.4363 94.772 17.454 94.7415 17.4855C94.7109 17.517 94.6938 17.5598 94.6938 17.6043V27.5876C94.6938 27.703 94.7532 27.7607 94.872 27.7607H97.1069C97.2358 27.7641 97.302 27.6996 97.3054 27.5672C97.3767 24.8826 97.3529 22.4559 97.2342 20.2872C97.1697 19.1469 97.392 19.0875 97.9011 20.109L101.587 27.4959C101.679 27.6724 101.823 27.7624 102.02 27.7658L103.465 27.7709C103.586 27.7708 103.704 27.7355 103.805 27.6695C103.905 27.6034 103.984 27.5094 104.031 27.3992C105.083 24.9182 106.109 22.4118 107.111 19.8799Z" fill="#00AB55"/>
</svg>

<svg xmlns="http://www.w3.org/2000/svg" width="111" height="28" fill="none"><path fill="#00AB55" fill-rule="evenodd" d="M65.07 4.317a2.154 2.154 0 1 0 0-4.307 2.154 2.154 0 0 0 0 4.307Zm-43.533 6.521C13.874 14.955 6.907 20.402.64 27.18c-.074.078-.15.08-.229.005l-.132-.127a.255.255 0 0 1-.01-.351c3.105-3.432 6.29-6.456 9.555-9.072C19.988 9.485 31.53 4.492 44.446 2.652c.336-.049.67-.071 1.004-.094.573-.038 1.144-.076 1.71-.247a4.715 4.715 0 0 1 1.196-.188c4.5-.146 8.98-.167 13.44-.061a.276.276 0 0 1 .27.3l-.015.198c-.014.187-.114.275-.3.265-6.167-.251-10.114-.283-11.842-.097-.42.046-.842.09-1.264.134-3.104.326-6.231.655-9.086 1.322-6.662 1.558-12.67 3.776-18.022 6.654ZM68.4 3.768C78.74 5.548 88.503 9.59 97.21 15.46a.487.487 0 0 0 .585-.025l.107-.087a.204.204 0 0 0 .077-.174.215.215 0 0 0-.097-.167c-1.85-1.17-3.71-2.294-5.58-3.37A74.166 74.166 0 0 0 68.364 2.87c-.21-.037-.326.051-.347.265l-.01.132c-.02.285.11.452.392.5Zm7.88 20.79.103-.504c.04-.213.17-.324.387-.33l1.802-.046c.197-.007.31.086.34.28.259 1.619-.201 2.825-1.379 3.62a1.049 1.049 0 0 1-.605.188h-6.94a2.938 2.938 0 0 1-2.728-1.853 2.924 2.924 0 0 1-.204-1.14 57.771 57.771 0 0 0-.035-3.682c-.072-1.578.315-3.09 1.898-3.655a5.06 5.06 0 0 1 1.925-.3c1.415.074 2.866.06 4.353-.046 2.459-.168 4.113 1.008 3.71 3.788-.026.18-.132.27-.315.27l-1.944.005c-.18 0-.277-.089-.29-.265-.065-.676-.437-1.013-1.116-1.013-1.656.003-3.234.01-4.734.02a.88.88 0 0 0-.87.88l-.01 3.228a1.105 1.105 0 0 0 1.104 1.105l4.892-.005a.667.667 0 0 0 .657-.545Zm-13.078-7.24h2.2c.104 0 .188.085.188.19v10.059a.188.188 0 0 1-.188.188h-2.2a.188.188 0 0 1-.188-.188v-10.06c0-.104.084-.188.188-.188Zm-20.21 7.79a.86.86 0 0 0 .807-.543.877.877 0 0 0 .063-.337l-.097-6.395c-.003-.268.131-.402.402-.402l1.9.01c.254 0 .38.128.376.382-.03 2.325-.053 4.741-.066 7.25-.005 1.68-1.064 2.846-2.724 2.825-2.134-.02-4.254-.034-6.358-.04-1.792-.01-2.836-1.6-2.805-3.274.04-2.423.034-4.712-.02-6.868-.004-.186.088-.28.274-.28l2.103-.005a.295.295 0 0 1 .212.09.305.305 0 0 1 .088.216l-.025 6.292c-.004.706.348 1.06 1.053 1.064l4.816.015Zm5.722 2.658 2.29-.005a.199.199 0 0 0 .2-.199l-.067-7.244a.199.199 0 0 1 .366-.112l4.949 7.473a.199.199 0 0 0 .168.087l4.429-.005a.199.199 0 0 0 .198-.199l-.005-9.912a.199.199 0 0 0-.198-.198l-2.2-.016a.198.198 0 0 0-.198.199l.056 8.013a.199.199 0 0 1-.367.107l-5.294-8.227a.199.199 0 0 0-.168-.092h-4.154a.199.199 0 0 0-.199.199l-.005 9.932a.199.199 0 0 0 .199.199Zm35.707-2.663 4.71-.005a.876.876 0 0 0 .875-.875l-.02-6.456c0-.214.107-.322.32-.326l1.965-.01c.19 0 .284.094.28.28-.02 2.39-.016 4.894.01 7.514.01 1.385-.997 2.612-2.438 2.637-2.396.048-4.71.028-6.944-.06-1.568-.057-2.49-1.813-2.494-3.198-.007-2.331-.007-4.63 0-6.898a.279.279 0 0 1 .17-.255.265.265 0 0 1 .105-.02l1.888.01c.234.004.35.12.346.352l-.045 6.027a1.275 1.275 0 0 0 1.272 1.283Zm22.691-5.223a.331.331 0 0 1 .295-.23.178.178 0 0 1 .136.043.176.176 0 0 1 .057.13l-.061 7.79c0 .099.049.148.148.148l2.245.005c.149.003.224-.071.224-.224v-9.765c0-.224-.114-.337-.341-.34l-3.92-.006c-.221 0-.375.1-.463.3l-2.51 5.794a.242.242 0 0 1-.349.108.238.238 0 0 1-.089-.103l-2.709-5.798a.488.488 0 0 0-.473-.3l-4.444.004a.16.16 0 0 0-.115.05.17.17 0 0 0-.048.118v9.984c0 .115.06.173.178.173h2.235c.129.003.195-.061.198-.194.072-2.684.048-5.111-.07-7.28-.065-1.14.157-1.2.666-.178l3.686 7.387a.467.467 0 0 0 .433.27l1.445.005a.613.613 0 0 0 .566-.372 335.702 335.702 0 0 0 3.08-7.52Z" clip-rule="evenodd"/></svg>
